packages/kaspersky-hexa-ui-icons/src/iconsSVGs/16/Host.svg

<svg width="16" height="16" viewBox="0 0 16 16" fill="none" xmlns="http://www.w3.org/2000/svg">
<path d="M4.2002 3.61558C3.86882 3.61558 3.6002 3.88421 3.6002 4.21558V8.71558C3.6002 9.04695 3.86883 9.31558 4.2002 9.31558H11.8002C12.1316 9.31558 12.4002 9.04695 12.4002 8.71558V4.21558C12.4002 3.88421 12.1316 3.61558 11.8002 3.61558H4.2002Z" fill="black"/>
<path fill-rule="evenodd" clip-rule="evenodd" d="M3.64805 0.990723C2.18449 0.990723 0.998047 2.17717 0.998047 3.64072V9.29053C0.998047 10.7541 2.18449 11.9405 3.64805 11.9405H7.0001V13.7095H4.7313C4.37231 13.7095 4.0813 14.0005 4.0813 14.3595C4.0813 14.7185 4.37231 15.0095 4.7313 15.0095H11.2697C11.6287 15.0095 11.9197 14.7185 11.9197 14.3595C11.9197 14.0005 11.6287 13.7095 11.2697 13.7095H9.0001V11.9405H12.3525C13.816 11.9405 15.0025 10.7541 15.0025 9.29053V3.64072C15.0025 2.17717 13.816 0.990723 12.3525 0.990723H3.64805ZM2.29805 3.64072C2.29805 2.89514 2.90246 2.29072 3.64805 2.29072H12.3525C13.098 2.29072 13.7025 2.89514 13.7025 3.64072V9.29053C13.7025 10.0361 13.098 10.6405 12.3525 10.6405H3.64805C2.90246 10.6405 2.29805 10.0361 2.29805 9.29053V3.64072Z" fill="black"/>
</svg>

<svg xmlns="http://www.w3.org/2000/svg" width="16" height="16" fill="none" viewBox="0 0 16 16"><path fill="#000" fill-rule="evenodd" d="M3.648.9906c-1.4636 0-2.65 1.1864-2.65 2.65v5.6498c0 1.4636 1.1864 2.65 2.65 2.65H7v1.769H4.7312a.65.65 0 1 0 0 1.2999h6.5384a.65.65 0 1 0 0-1.2999H9v-1.769h3.3523c1.4636 0 2.65-1.1864 2.65-2.65V3.6406c0-1.4636-1.1864-2.65-2.65-2.65zm-1.35 2.65c0-.7456.6043-1.35 1.35-1.35h8.7043c.7456 0 1.35.6044 1.35 1.35v5.6498c0 .7456-.6044 1.35-1.35 1.35H3.6479c-.7456 0-1.35-.6044-1.35-1.35z"/></svg>
